!!! OTL: Berkowitz367
!!! Chapter: 1
!!! Section: III
!!! Page: 90
!!! Mode: 
!!! Encoder: DJB
**kern
*staff1
*I"Piano
=1-
*clefC3
*k[f#c#]
*D:
*met(c|)
*M2/2
4d\
4g#\
4a\
4d\
=2
4g\
4a\
4f#\
4d\
=3
4e\
4c#\
4A/
4b\
=4
2a\
4r
4d\
=5
4g#\
4a\
4d\
4g#\
=6
4a\
4f#\
4d\
4d#\
=7
4e\
4c#\
4A/
4a\
=8
2d\
4r
4d\
=9
4a#\
4b\
4r
4d\
=10
!!linebreak:original
4g#\
4a\
4r
4f#\
=11
4g\
4e\
4c#\
4A/
=12
4e#\
4f#\
4en\
[4dd\
=13
4dd\]
2cc#\
[4b\
=14
4b\]
2a\
4g\
=15
4f#\
4d#\
4e\
4b\
=16
4A/
8B/L
8c#/J
4d\
4r
==
*-
